Numix/16/status/indicator-keyboard-Hr-5.svg

<?xml version="1.0" encoding="UTF-8" standalone="no"?>
<svg
   xmlns:dc="http://purl.org/dc/elements/1.1/"
   xmlns:cc="http://creativecommons.org/ns#"
   xmlns:rdf="http://www.w3.org/1999/02/22-rdf-syntax-ns#"
   xmlns:svg="http://www.w3.org/2000/svg"
   xmlns="http://www.w3.org/2000/svg"
   xmlns:sodipodi="http://sodipodi.sourceforge.net/DTD/sodipodi-0.dtd"
   xmlns:inkscape="http://www.inkscape.org/namespaces/inkscape"
   viewBox="0 0 16 16"
   id="svg2"
   version="1.1"
   inkscape:version="0.91 r13725"
   sodipodi:docname="indicator-keyboard-Hr-5.svg">
  <metadata
     id="metadata14">
    <rdf:RDF>
      <cc:Work
         rdf:about="">
        <dc:format>image/svg+xml</dc:format>
        <dc:type
           rdf:resource="http://purl.org/dc/dcmitype/StillImage" />
      </cc:Work>
    </rdf:RDF>
  </metadata>
  <defs
     id="defs12" />
  <sodipodi:namedview
     pagecolor="#ffffff"
     bordercolor="#666666"
     borderopacity="1"
     objecttolerance="10"
     gridtolerance="10"
     guidetolerance="10"
     inkscape:pageopacity="0"
     inkscape:pageshadow="2"
     inkscape:window-width="459"
     inkscape:window-height="369"
     id="namedview10"
     showgrid="false"
     inkscape:zoom="14.75"
     inkscape:cx="8"
     inkscape:cy="8"
     inkscape:window-x="65"
     inkscape:window-y="24"
     inkscape:window-maximized="0"
     inkscape:current-layer="svg2" />
  <path
     style="fill:#ececec;fill-opacity:1"
     d="M 1.5996094 0 C 0.71320937 2.9605947e-16 0 0.71320937 0 1.5996094 L 0 14.400391 C 2.9605947e-16 15.286791 0.71320937 16 1.5996094 16 L 14.400391 16 C 15.286791 16 16 15.286791 16 14.400391 L 16 1.5996094 C 16 0.71320937 15.286791 0 14.400391 0 L 1.5996094 0 z M 2.203125 4.859375 L 2.8144531 4.859375 L 2.8144531 7.5683594 L 6.1972656 7.5683594 L 6.1972656 4.859375 L 6.8105469 4.859375 L 6.8105469 11.095703 L 6.1972656 11.095703 L 6.1972656 8.0996094 L 2.8144531 8.0996094 L 2.8144531 11.095703 L 2.203125 11.095703 L 2.203125 4.859375 z M 9.9726562 6.3535156 C 10.164656 6.3535156 10.345672 6.3684375 10.513672 6.3984375 C 10.687672 6.4284375 10.807047 6.4582812 10.873047 6.4882812 L 10.755859 6.9921875 C 10.707859 6.9681875 10.608984 6.9439219 10.458984 6.9199219 C 10.314984 6.8899219 10.122812 6.875 9.8828125 6.875 C 9.6308125 6.875 9.4274844 6.8936875 9.2714844 6.9296875 C 9.1214844 6.9656875 9.0226094 6.9955312 8.9746094 7.0195312 L 8.9746094 11.095703 L 8.3886719 11.095703 L 8.3886719 6.6582031 C 8.5386719 6.5922031 8.7457656 6.5269375 9.0097656 6.4609375 C 9.2737656 6.3889375 9.5946563 6.3535156 9.9726562 6.3535156 z M 11.832031 8.8417969 L 13.658203 8.8417969 L 13.658203 9.1757812 L 12.166016 9.1757812 C 12.162149 9.2498812 12.156271 9.3458906 12.148438 9.4628906 C 12.140638 9.5798906 12.1328 9.6994188 12.125 9.8242188 C 12.1172 9.9451188 12.107403 10.062681 12.095703 10.175781 C 12.084003 10.288881 12.074206 10.379012 12.066406 10.445312 C 12.366706 10.453112 12.62535 10.490341 12.84375 10.556641 C 13.06215 10.622941 13.242413 10.711119 13.382812 10.824219 C 13.523213 10.937319 13.627059 11.074475 13.693359 11.234375 C 13.763559 11.394275 13.796875 11.572578 13.796875 11.767578 C 13.796875 11.939178 13.769438 12.097894 13.710938 12.246094 C 13.656338 12.394294 13.570125 12.523613 13.453125 12.632812 C 13.336125 12.742012 13.187212 12.828225 13.007812 12.890625 C 12.828413 12.953025 12.616794 12.984375 12.371094 12.984375 C 12.246294 12.984375 12.128731 12.974578 12.019531 12.955078 C 11.914231 12.939478 11.818222 12.919884 11.732422 12.896484 C 11.650522 12.873084 11.579984 12.849572 11.521484 12.826172 C 11.462984 12.802772 11.419878 12.783178 11.392578 12.767578 L 11.492188 12.427734 C 11.515588 12.443334 11.554775 12.462928 11.609375 12.486328 C 11.667875 12.509728 11.734494 12.533241 11.808594 12.556641 C 11.886594 12.576141 11.972806 12.593775 12.066406 12.609375 C 12.163906 12.624975 12.265794 12.632812 12.371094 12.632812 C 12.566094 12.632812 12.726769 12.611259 12.855469 12.568359 C 12.988069 12.521559 13.093875 12.458859 13.171875 12.380859 C 13.249875 12.302859 13.304738 12.212728 13.335938 12.111328 C 13.371037 12.006028 13.388672 11.894337 13.388672 11.773438 C 13.388672 11.617437 13.3632 11.476362 13.3125 11.351562 C 13.2618 11.226762 13.171669 11.120956 13.042969 11.035156 C 12.914269 10.949356 12.741837 10.884697 12.523438 10.841797 C 12.305037 10.794997 12.026806 10.771484 11.691406 10.771484 C 11.714806 10.572584 11.7344 10.392316 11.75 10.228516 C 11.7656 10.060816 11.779316 9.9001469 11.791016 9.7480469 C 11.802716 9.5920469 11.810553 9.4431281 11.814453 9.2988281 C 11.822253 9.1506281 11.828131 8.9977969 11.832031 8.8417969 z "
     id="path4" />
</svg>

<svg xmlns="http://www.w3.org/2000/svg" viewBox="0 0 16 16">
 <path d="m 1.6 0 c -0.886 0 -1.6 0.713 -1.6 1.6 l 0 12.801 c 0 0.886 0.713 1.6 1.6 1.6 l 12.801 0 c 0.886 0 1.6 -0.713 1.6 -1.6 l 0 -12.801 c 0 -0.886 -0.713 -1.6 -1.6 -1.6 l -12.801 0 z m 0.604 4.859 l 0.611 0 l 0 2.709 l 3.383 0 l 0 -2.709 l 0.613 0 l 0 6.236 l -0.613 0 l 0 -2.996 l -3.383 0 l 0 2.996 l -0.611 0 l 0 -6.236 z m 7.77 1.494 c 0.192 0 0.373 0.015 0.541 0.045 c 0.174 0.03 0.293 0.06 0.359 0.09 l -0.117 0.504 c -0.048 -0.024 -0.147 -0.048 -0.297 -0.072 c -0.144 -0.03 -0.336 -0.045 -0.576 -0.045 c -0.252 0 -0.455 0.019 -0.611 0.055 c -0.15 0.036 -0.249 0.066 -0.297 0.09 l 0 4.076 l -0.586 0 l 0 -4.437 c 0.15 -0.066 0.357 -0.131 0.621 -0.197 c 0.264 -0.072 0.585 -0.107 0.963 -0.107 z m 1.859 2.488 l 1.826 0 l 0 0.334 l -1.492 0 c -0.004 0.074 -0.01 0.17 -0.018 0.287 c -0.008 0.117 -0.016 0.237 -0.023 0.361 c -0.008 0.121 -0.018 0.238 -0.029 0.352 c -0.012 0.113 -0.021 0.203 -0.029 0.27 c 0.3 0.008 0.559 0.045 0.777 0.111 c 0.218 0.066 0.399 0.154 0.539 0.268 c 0.14 0.113 0.244 0.25 0.311 0.41 c 0.07 0.16 0.104 0.338 0.104 0.533 c 0 0.172 -0.027 0.33 -0.086 0.479 c -0.055 0.148 -0.141 0.278 -0.258 0.387 c -0.117 0.109 -0.266 0.195 -0.445 0.258 c -0.179 0.062 -0.391 0.094 -0.637 0.094 c -0.125 0 -0.242 -0.01 -0.352 -0.029 c -0.105 -0.016 -0.201 -0.035 -0.287 -0.059 c -0.082 -0.023 -0.152 -0.047 -0.211 -0.07 c -0.058 -0.023 -0.102 -0.043 -0.129 -0.059 l 0.1 -0.34 c 0.023 0.016 0.063 0.035 0.117 0.059 c 0.059 0.023 0.125 0.047 0.199 0.07 c 0.078 0.019 0.164 0.037 0.258 0.053 c 0.098 0.016 0.199 0.023 0.305 0.023 c 0.195 0 0.356 -0.022 0.484 -0.064 c 0.133 -0.047 0.238 -0.109 0.316 -0.188 c 0.078 -0.078 0.133 -0.168 0.164 -0.27 c 0.035 -0.105 0.053 -0.217 0.053 -0.338 c 0 -0.156 -0.025 -0.297 -0.076 -0.422 c -0.051 -0.125 -0.141 -0.231 -0.27 -0.316 c -0.129 -0.086 -0.301 -0.15 -0.52 -0.193 c -0.218 -0.047 -0.497 -0.07 -0.832 -0.07 c 0.023 -0.199 0.043 -0.379 0.059 -0.543 c 0.016 -0.168 0.029 -0.328 0.041 -0.48 c 0.012 -0.156 0.02 -0.305 0.023 -0.449 c 0.008 -0.148 0.014 -0.301 0.018 -0.457 z" style="fill:#ececec;fill-opacity:1"/>
</svg>
